app/images/icons/email.svg

<?xml version="1.0" encoding="UTF-8"?>
<svg xmlns="http://www.w3.org/2000/svg" xmlns:xlink="http://www.w3.org/1999/xlink" width="37pt" height="37pt" viewBox="0 0 37 37" version="1.1">
<g id="surface1">
<path  d="M 33.53125 4.625 L 3.46875 4.625 C 1.554688 4.625 0 6.179688 0 8.09375 L 0 28.90625 C 0 30.820312 1.554688 32.375 3.46875 32.375 L 33.53125 32.375 C 35.445312 32.375 37 30.820312 37 28.90625 L 37 8.09375 C 37 6.179688 35.445312 4.625 33.53125 4.625 Z M 33.53125 6.9375 C 33.6875 6.9375 33.835938 6.96875 33.972656 7.027344 L 18.5 20.4375 L 3.027344 7.027344 C 3.164062 6.96875 3.3125 6.9375 3.46875 6.9375 Z M 33.53125 30.0625 L 3.46875 30.0625 C 2.832031 30.0625 2.3125 29.542969 2.3125 28.90625 L 2.3125 9.46875 L 17.742188 22.84375 C 17.960938 23.03125 18.230469 23.125 18.5 23.125 C 18.769531 23.125 19.039062 23.03125 19.257812 22.84375 L 34.6875 9.46875 L 34.6875 28.90625 C 34.6875 29.542969 34.167969 30.0625 33.53125 30.0625 Z M 33.53125 30.0625 "/>
</g>
</svg>

<svg xmlns="http://www.w3.org/2000/svg" width="37pt" height="37pt" viewBox="0 0 37 37"><path d="M33.531 4.625H3.47A3.47 3.47 0 000 8.094v20.812a3.47 3.47 0 003.469 3.469H33.53A3.47 3.47 0 0037 28.906V8.094a3.47 3.47 0 00-3.469-3.469zm0 2.313c.157 0 .305.03.442.09L18.5 20.437 3.027 7.027c.137-.06.285-.09.442-.09zm0 23.125H3.47c-.637 0-1.156-.52-1.156-1.157V9.47l15.43 13.375a1.162 1.162 0 001.515 0L34.689 9.47v19.437a1.16 1.16 0 01-1.157 1.157zm0 0" id="surface1"/></svg>
